assets/trix/images/block_level_decrease.svg

<?xml version="1.0" encoding="UTF-8" standalone="no"?>
<svg width="24px" height="24px" viewBox="0 0 24 24" version="1.1" xmlns="http://www.w3.org/2000/svg" xmlns:xlink="http://www.w3.org/1999/xlink">
  <path d="M3,19 L22,19 L22,17 L3,17 L3,19 L3,19 Z M10,13 L22,13 L22,11 L10,11 L10,13 L10,13 Z M1.70710678,12.7426407 L4.53553391,15.5710678 L5.94974747,14.1568542 L3.82842712,12.0355339 L5.94974747,9.91421356 L4.53553391,8.5 L1,12.0355339 L1.70710678,12.7426407 Z M3,5 L3,7 L22,7 L22,5 L3,5 Z" id="Shape" fill="#000"></path>
</svg>

<svg width="24" height="24" viewBox="0 0 24 24" xmlns="http://www.w3.org/2000/svg"><path d="M3 19h19v-2H3v2zm7-6h12v-2H10v2zm-8.3-.26l2.84 2.83 1.4-1.4-2.1-2.13 2.1-2.13-1.4-1.4L1 12.04l.7.7zM3 5v2h19V5H3z"/></svg>
